src/assets/img/aetm-didyouknow-4.svg

<?xml version="1.0" encoding="UTF-8"?>
<svg width="145px" height="66px" viewBox="0 0 145 66" version="1.1" xmlns="http://www.w3.org/2000/svg" xmlns:xlink="http://www.w3.org/1999/xlink">
    <!-- Generator: sketchtool 41 (35326) - http://www.bohemiancoding.com/sketch -->
    <title>1D932E13-7C3F-49C9-ACDC-3E866E63CD93</title>
    <desc>Created with sketchtool.</desc>
    <defs>
        <polygon id="path-1" points="0 66 144.183 66 144.183 0 0 0"></polygon>
    </defs>
    <g id="Page-1" stroke="none" stroke-width="1" fill="none" fill-rule="evenodd">
        <g id="aetm-DIDYOUKNOW-illus" transform="translate(-185.000000, -659.000000)">
            <g id="DYK-illu4" transform="translate(185.000000, 659.000000)">
                <g id="Page-1">
                    <path d="M101.0164,33 C101.0164,50.948 86.4644,65.5 68.5164,65.5 C50.5684,65.5 36.0164,50.948 36.0164,33 C36.0164,15.049 50.5684,0.5 68.5164,0.5 C86.4644,0.5 101.0164,15.049 101.0164,33 Z" id="Stroke-3" stroke="#FEFEFE" stroke-linecap="round" stroke-linejoin="round"></path>
                    <path d="M38.5475,32.9935 L100.2975,32.9935" id="Stroke-5" stroke="#FEFEFE" stroke-linecap="round" stroke-linejoin="round"></path>
                    <path d="M42.5201,52.4935 L93.7971,52.4935" id="Stroke-7" stroke="#FEFEFE" stroke-linecap="round" stroke-linejoin="round"></path>
                    <path d="M42.5201,13.4935 L93.7971,13.4935" id="Stroke-9" stroke="#FEFEFE" stroke-linecap="round" stroke-linejoin="round"></path>
                    <path d="M68.5164,65.3251 C78.2214,58.8601 84.7664,46.8281 84.7664,33.0131 C84.7664,19.2001 78.2214,7.1681 68.5164,0.7061" id="Stroke-11" stroke="#FEFEFE" stroke-linecap="round" stroke-linejoin="round"></path>
                    <path d="M68.5131,65.3251 C58.8081,58.8601 52.2631,46.8281 52.2631,33.0131 C52.2631,19.2001 58.8081,7.1681 68.5131,0.7061" id="Stroke-13" stroke="#FEFEFE" stroke-linecap="round" stroke-linejoin="round"></path>
                    <path d="M23.0091,32.9925 L112.4571,32.9925" id="Stroke-15" stroke="#FEFEFE" stroke-linecap="round" stroke-linejoin="round"></path>
                    <polyline id="Stroke-17" stroke="#FEFEFE" stroke-linecap="round" stroke-linejoin="round" points="105.6123 27.3397 113.7333 32.9927 105.6123 37.7027"></polyline>
                    <polyline id="Stroke-19" stroke="#FEFEFE" stroke-linecap="round" stroke-linejoin="round" points="31.1299 38.1742 23.0089 32.9922 31.1299 27.8112"></polyline>
                    <path d="M143.6828,36.996 C143.6828,37.824 143.0108,38.496 142.1828,38.496 L122.1828,38.496 C121.3548,38.496 120.6828,37.824 120.6828,36.996 L120.6828,22.996 C120.6828,22.168 121.3548,21.496 122.1828,21.496 L142.1828,21.496 C143.0108,21.496 143.6828,22.168 143.6828,22.996 L143.6828,36.996 Z" id="Stroke-21" stroke="#FEFEFE" stroke-linecap="round" stroke-linejoin="round"></path>
                    <path d="M121.1828,23.496 L143.1828,23.496" id="Stroke-23" stroke="#FEFEFE" stroke-linecap="round" stroke-linejoin="round"></path>
                    <path d="M121.1828,35.496 L143.1828,35.496" id="Stroke-25" stroke="#FEFEFE" stroke-linecap="round" stroke-linejoin="round"></path>
                    <polygon id="Stroke-27" stroke="#FEFEFE" stroke-linecap="round" stroke-linejoin="round" points="136.4035 40.496 124.4035 40.496 122.4035 44.496 137.4035 44.496"></polygon>
                    <path d="M141.1828,44.496 C140.3588,44.496 139.6828,43.821 139.6828,42.996 L139.6828,41.996 C139.6828,41.171 140.3588,40.496 141.1828,40.496 C142.0088,40.496 142.6828,41.171 142.6828,41.996 L142.6828,42.996 C142.6828,43.821 142.0088,44.496 141.1828,44.496 Z" id="Stroke-29" stroke="#FEFEFE" stroke-linecap="round" stroke-linejoin="round"></path>
                    <path d="M123.6313,27.0467 L130.5663,27.0467" id="Stroke-31" stroke="#FEFEFE" stroke-linecap="round" stroke-linejoin="round"></path>
                    <path d="M123.6313,29.3766 L130.5663,29.3766" id="Stroke-33" stroke="#FEFEFE" stroke-linecap="round" stroke-linejoin="round"></path>
                    <path d="M123.6313,31.9396 L130.5663,31.9396" id="Stroke-35" stroke="#FEFEFE" stroke-linecap="round" stroke-linejoin="round"></path>
                    <mask id="mask-2" fill="white">
                        <use xlink:href="#path-1"></use>
                    </mask>
                    <g id="Clip-38"></g>
                    <polygon id="Stroke-37" stroke="#FEFEFE" stroke-linecap="round" stroke-linejoin="round" mask="url(#mask-2)" points="133.234 29.996 140.734 29.996 140.734 27.047 133.234 27.047"></polygon>
                    <path d="M13.5,42.996 C13.5,43.824 12.828,44.496 12,44.496 L2,44.496 C1.172,44.496 0.5,43.824 0.5,42.996 L0.5,22.996 C0.5,22.168 1.172,21.496 2,21.496 L12,21.496 C12.828,21.496 13.5,22.168 13.5,22.996 L13.5,42.996 Z" id="Stroke-39" stroke="#FEFEFE" stroke-linecap="round" stroke-linejoin="round" mask="url(#mask-2)"></path>
                    <path d="M1,25.496 L13,25.496" id="Stroke-40" stroke="#FEFEFE" stroke-linecap="round" stroke-linejoin="round" mask="url(#mask-2)"></path>
                    <path d="M1,40.496 L13,40.496" id="Stroke-41" stroke="#FEFEFE" stroke-linecap="round" stroke-linejoin="round" mask="url(#mask-2)"></path>
                    <polyline id="Stroke-42" stroke="#FEFEFE" stroke-linecap="round" stroke-linejoin="round" mask="url(#mask-2)" points="22 22.496 19.5 22.496 19.5 26.496 22.5 26.496 22.5 24.496 22 24.496"></polyline>
                    <polyline id="Stroke-43" stroke="#FEFEFE" stroke-linecap="round" stroke-linejoin="round" mask="url(#mask-2)" points="17.3604 22.746 15.2204 25.496 17.5004 25.496 17.5004 26.996"></polyline>
                    <path id="Stroke-44" stroke="#FEFEFE" stroke-linecap="round" stroke-linejoin="round" mask="url(#mask-2)"></path>
                    <path d="M6,42.496 L8,42.496" id="Stroke-45" stroke="#FEFEFE" stroke-linecap="round" stroke-linejoin="round" mask="url(#mask-2)"></path>
                    <path d="M2.9928,27.376 L10.4488,27.376" id="Stroke-46" stroke="#FEFEFE" stroke-linecap="round" stroke-linejoin="round" mask="url(#mask-2)"></path>
                    <path d="M2.9928,29.3856 L10.4488,29.3856" id="Stroke-47" stroke="#FEFEFE" stroke-linecap="round" stroke-linejoin="round" mask="url(#mask-2)"></path>
                    <polygon id="Stroke-48" stroke="#FEFEFE" stroke-linecap="round" stroke-linejoin="round" mask="url(#mask-2)" points="2.993 38.142 10.449 38.142 10.449 31.473 2.993 31.473"></polygon>
                </g>
                <path d="M38.1599053,60.0071819 C35.5909053,60.1371819 33.7099053,59.5851819 32.7339053,58.2731819 C28.7499053,52.8871819 41.3849053,36.7741819 60.9609053,22.2721819 C80.5309053,7.77418194 99.6379053,0.376181938 103.623905,5.75618194 C104.500905,6.94318194 104.571905,8.65218194 103.932905,10.7541819" id="Page-1" stroke="#FEFEFE" stroke-linecap="round" stroke-linejoin="round"></path>
            </g>
        </g>
    </g>
</svg>

<svg width="145" height="66" viewBox="0 0 145 66" xmlns="http://www.w3.org/2000/svg" xmlns:xlink="http://www.w3.org/1999/xlink"><defs><path id="a" d="M0 66h144.183V0H0z"/></defs><g fill="none" fill-rule="evenodd"><g><path d="M101.016 33c0 17.948-14.552 32.5-32.5 32.5s-32.5-14.552-32.5-32.5c0-17.95 14.552-32.5 32.5-32.5s32.5 14.55 32.5 32.5zM38.547 32.993h61.75M42.52 52.493h51.277M42.52 13.493h51.277" stroke="#FEFEFE" stroke-linecap="round" stroke-linejoin="round"/><path d="M68.516 65.325c9.705-6.465 16.25-18.497 16.25-32.312 0-13.813-6.545-25.845-16.25-32.307M68.513 65.325c-9.705-6.465-16.25-18.497-16.25-32.312 0-13.813 6.545-25.845 16.25-32.307M23.01 32.992h89.447M105.612 27.34l8.12 5.653-8.12 4.71M31.13 38.174l-8.12-5.182 8.12-5.18M143.683 36.996c0 .828-.672 1.5-1.5 1.5h-20c-.828 0-1.5-.672-1.5-1.5v-14c0-.828.672-1.5 1.5-1.5h20c.828 0 1.5.672 1.5 1.5v14zM121.183 23.496h22M121.183 35.496h22M136.404 40.496h-12l-2 4h15zM141.183 44.496c-.824 0-1.5-.675-1.5-1.5v-1c0-.825.676-1.5 1.5-1.5.826 0 1.5.675 1.5 1.5v1c0 .825-.674 1.5-1.5 1.5zM123.63 27.047h6.936M123.63 29.377h6.936M123.63 31.94h6.936" stroke="#FEFEFE" stroke-linecap="round" stroke-linejoin="round"/><mask id="b" fill="#fff"><use xlink:href="#a"/></mask><path stroke="#FEFEFE" stroke-linecap="round" stroke-linejoin="round" mask="url(#b)" d="M133.234 29.996h7.5v-2.95h-7.5zM13.5 42.996c0 .828-.672 1.5-1.5 1.5H2c-.828 0-1.5-.672-1.5-1.5v-20c0-.828.672-1.5 1.5-1.5h10c.828 0 1.5.672 1.5 1.5v20zM1 25.496h12M1 40.496h12M22 22.496h-2.5v4h3v-2H22M17.36 22.746l-2.14 2.75h2.28v1.5M6 42.496h2M2.993 27.376h7.456M2.993 29.386h7.456"/><path stroke="#FEFEFE" stroke-linecap="round" stroke-linejoin="round" mask="url(#b)" d="M2.993 38.142h7.456v-6.67H2.992z"/></g><path d="M38.16 60.007c-2.57.13-4.45-.422-5.426-1.734-3.984-5.386 8.65-21.5 28.227-36C80.53 7.772 99.64.375 103.625 5.755c.877 1.187.948 2.896.31 4.998" stroke="#FEFEFE" stroke-linecap="round" stroke-linejoin="round"/></g></svg>
